X:1
T: The Four Courts
R:reel
S:
H:
N:
D:
Z:Adrian Scahill <continuo@ntlworld.com> irtrad-l 2001-8-9
M:4/4
L:1/8
K:G
ADD2 ADBD|ADDF GABG|ADdA BGGA|BdcA GABG|\
ADD2 ADBD|ADDF GABG|ADdA BGGA|BdcA GBAG||\
E2cE dEcE|E2cA GBAG|E2cE dEcE|BdcA GBAG|\
E2cE dEcE|E2cA GABe|d2eB dGGA|BdcA GABG||\
A2dA BdBG|ABAF GEFG|A2dA (3Bcd BA|GBB2 GBdB|\
A2dA BdBG|ABAF GABe|d2eB dGGA|BdcA GABG||
